X: 1
T: Dark Horse
M: 4/4
L: 1/8
R: reel
K: Bmin
Bfgf efed | cded cdcA | Bfgf efed | cded cA B2 :|
e3 f g2 fe | d3 e f2 ed | c3 d e2 dc | dfec dcBA |
e3 f g2 fe | d3 e f2 ed | c3 d e2 dc | dfed B4 :|
